images/ico_tg.svg

<svg width="32" height="32" viewBox="0 0 32 32" fill="none" xmlns="http://www.w3.org/2000/svg">
<path d="M0 12C0 5.37258 5.37258 0 12 0H20C26.6274 0 32 5.37258 32 12V20C32 26.6274 26.6274 32 20 32H12C5.37258 32 0 26.6274 0 20V12Z" fill="#00AEF0"/>
<path d="M22.9746 10.0355L20.2427 21.1731C20.1142 21.6976 19.5196 21.9679 19.0321 21.7188L15.577 19.9544L13.9432 22.5984C13.4987 23.319 12.3738 23.0064 12.3738 22.1639V19.2178C12.3738 18.99 12.4702 18.7728 12.6362 18.6138L19.3696 12.2556C19.3642 12.1761 19.2785 12.1072 19.1929 12.1654L11.158 17.6971L8.45835 16.3195C7.82634 15.9963 7.85312 15.0902 8.50654 14.8094L21.8178 9.07122C22.4552 8.79565 23.1406 9.36269 22.9746 10.0355Z" fill="white"/>
</svg>

<svg width="32" height="32" fill="none" xmlns="http://www.w3.org/2000/svg"><path d="M0 12C0 5.373 5.373 0 12 0h8c6.627 0 12 5.373 12 12v8c0 6.627-5.373 12-12 12h-8C5.373 32 0 26.627 0 20v-8z" fill="#00AEF0"/><path d="M22.975 10.036l-2.732 11.137a.85.85 0 01-1.21.546l-3.456-1.765-1.634 2.644c-.444.721-1.57.408-1.57-.434v-2.946c0-.228.097-.445.263-.604l6.734-6.358c-.006-.08-.091-.149-.177-.09l-8.035 5.531-2.7-1.377a.833.833 0 01.049-1.51l13.31-5.739c.638-.275 1.324.292 1.158.965z" fill="#fff"/></svg>
